!!!!SEGMENT: pl-cz--iii-114--002_dankowski-adalbert--vesperae-d-juravit-dominus.krn
!!!cenid: 18xx:807
!!!COM: Dankowski, Adalbert
!!!COM-rismid: pe30000793
!!!CDT: ~1760-~1836
!!!CNT: Polish
!!!OPR: Vesperae D
!!!OTL: Juravit Dominus
!!!OMV: 002
!!!PDT:
!!!AGN: Sacred; Vespers
!!!SMS-siglum: PL-CZ
!!!SMS-shelfmark: III-114
!!!SMS-shelfwork: 001-002 M
!!!SMS-variant:
!!!SMS-altvar:
!!!NIFC-rismid: 300000113
!!!URL-scan: http://repozytorium.nifc.pl/skany/pl-cz-nut--iii-114
!!!ONB-nifc: UWAGA: części Vesperae: Dixit Dominus, Juravit Dominus, Judicabit, Gloria, Laudate pueri,
!!!key: A
**kern	**fba	**dynam	**kern	**dynam	**kern	**kern	**kern	**kern	**kern	**text	**kern	**kern	**kern	**kern
*	*	*	*group4	*	*group4	*group3	*group3	*group3	*group3	*	*group2	*group2	*group1	*group1
*part11	*part11	*part11	*part10	*part10	*par9	*part8	*part7	*part6	*part5	*part5	*part4	*part3	*part2	*part1
*staff11	*	*	*staff10	*	*staf9	*staff8	*staff7	*staff6	*staff5	*staff5	*staff4	*staff3	*staff2	*staff1
*I"Organo	*	*	*I"Violino Secodno	*	*I"[Violino Primo]	*I"Basso	*I"Tenore	*I"Alto	*I"Canto	*	*I"Cornu Secondo Ex D:	*I"Cornu Primo Ex D:	*I"[Flauto Secondo]	*I"[Flauto Primo]
*I'org	*	*	*I'vl 2	*	*I'[vl 1]	*I'B	*I'T	*I'A	*I'S	*	*I'cor 2 in D	*I'cor 2 in D	*I'[fl 2]	*I'[fl 1]
*Iorgan	*	*	*Ivioln	*	*Ivioln	*Ibass	*Itenor	*Ialto	*Isoprn	*	*Icor	*Icor	*Iflt	*Iflt
*ICklav	*	*	*ICstr	*	*ICstr	*ICvox	*ICvox	*ICvox	*ICvox	*	*ICbras	*ICbras	*ICww	*ICww
*IGcont	*	*	*IGacmp	*	*	*	*	*	*IGsolo	*	*IGacmp	*IGacmp	*	*
*clefF4	*	*	*clefG2	*	*clefG2	*clefF4	*clefC4	*clefC3	*clefC1	*	*clefG2	*clefG2	*clefG2	*clefG2
*	*	*	*	*	*	*	*	*	*	*	*ITrd-1c-2	*ITrd-1c-2	*	*
*k[f#c#g#]	*	*	*k[f#c#g#]	*	*k[f#c#g#]	*k[f#c#g#]	*k[f#c#g#]	*k[f#c#g#]	*k[f#c#g#]	*	*k[f#c#g#]	*k[f#c#g#]	*k[f#c#g#]	*k[f#c#g#]
*A:	*	*	*A:	*	*A:	*A:	*A:	*A:	*A:	*	*	*	*A:	*A:
*M2/4	*	*	*M2/4	*	*M2/4	*M2/4	*M2/4	*M2/4	*M2/4	*	*M2/4	*M2/4	*M2/4	*M2/4
!	!	!	!	!	!	!	!	!	!LO:TX:t=P:problem:znaki f# cc# g#	!	!	!	!	!
!LO:TX:a:i:t=andante Solo	!	!	!LO:TX:a:i:t=andan&colon; Solo&colon;	!	!LO:TX:a:t=P:problem:brak partii w źródle	!LO:TX:a:t=Juravit Tacet	!LO:TX:a:t=Juravit Tacet	!LO:TX:a:t=Juravit Tacet	!LO:TX:a:t=andan	!	!LO:TX:a:t=Juravit Tacet	!LO:TX:a:t=Juravit Tacet	!LO:TX:a:t=P:problem:brak partii w źródle	!LO:TX:a:t=P:problem:brak partii w źródle
8r	.	.	8r	.	8ryy	8ryy	8ryy	8ryy	8r	.	8ryy	8ryy	8ryy	8ryy
=1	=1	=1	=1	=1	=1	=1	=1	=1	=1	=1	=1	=1	=1	=1
8A\L	.	.	8cc#\L	.	2ryy	2ryy	2ryy	2ryy	0r	.	2ryy	2ryy	2ryy	2ryy
8A\	.	.	8cc#\	.	.	.	.	.	.	.	.	.	.	.
8A\	.	.	8cc#\	.	.	.	.	.	.	.	.	.	.	.
8A\J	.	.	8dd\J	.	.	.	.	.	.	.	.	.	.	.
=2	=2	=2	=2	=2	=2	=2	=2	=2	=2	=2	=2	=2	=2	=2
*	*	*	*Xtuplet	*	*	*	*	*	*	*	*	*	*	*
8A\L	6 4	.	24dd\LL	.	2ryy	2ryy	2ryy	2ryy	.	.	2ryy	2ryy	2ryy	2ryy
.	.	.	24cc#\	.	.	.	.	.	.	.	.	.	.	.
.	.	.	24dd\J	.	.	.	.	.	.	.	.	.	.	.
!LO:TX:t=P:problem:mixed beam	!	!	!	!	!	!	!	!	!	!	!	!	!	!
8A\	5_ 3_	.	8cc#\J	.	.	.	.	.	.	.	.	.	.	.
8AA/J	X X	.	16r	.	.	.	.	.	.	.	.	.	.	.
.	.	.	16cc#\LL	.	.	.	.	.	.	.	.	.	.	.
8r	.	.	16b\	.	.	.	.	.	.	.	.	.	.	.
.	.	.	16a\JJ	.	.	.	.	.	.	.	.	.	.	.
=3	=3	=3	=3	=3	=3	=3	=3	=3	=3	=3	=3	=3	=3	=3
8r	.	.	16a#X\LL	.	2ryy	2ryy	2ryy	2ryy	.	.	2ryy	2ryy	2ryy	2ryy
.	.	.	16b\	.	.	.	.	.	.	.	.	.	.	.
8D\L	6	.	16dd\	.	.	.	.	.	.	.	.	.	.	.
.	.	.	16b\JJ	.	.	.	.	.	.	.	.	.	.	.
!LO:TX:t=P:problem:mixed beam	!	!	!	!	!	!	!	!	!	!	!	!	!	!
8E\	4	.	16b/LL	.	.	.	.	.	.	.	.	.	.	.
.	.	.	16an/	.	.	.	.	.	.	.	.	.	.	.
8EE/J	3	.	16a/	.	.	.	.	.	.	.	.	.	.	.
.	.	.	16g#/JJ	.	.	.	.	.	.	.	.	.	.	.
=4	=4	=4	=4	=4	=4	=4	=4	=4	=4	=4	=4	=4	=4	=4
8AA/L	.	.	16a\LL	.	2ryy	2ryy	2ryy	2ryy	.	.	2ryy	2ryy	2ryy	2ryy
.	.	.	16b\J	.	.	.	.	.	.	.	.	.	.	.
16C#/L	.	.	8cc#\J	.	.	.	.	.	.	.	.	.	.	.
16E/JJ	.	.	.	.	.	.	.	.	.	.	.	.	.	.
8A\	.	.	16r	.	.	.	.	.	.	.	.	.	.	.
.	.	.	16cc#\LL	.	.	.	.	.	.	.	.	.	.	.
8r	.	.	16b\	.	.	.	.	.	.	.	.	.	.	.
.	.	.	16a\JJ	.	.	.	.	.	.	.	.	.	.	.
!	!	!	!LO:LB:g=original	!	!	!	!	!	!	!	!	!	!	!
=5	=5	=5	=5	=5	=5	=5	=5	=5	=5	=5	=5	=5	=5	=5
8r	.	.	16a#X\LL	.	2ryy	2ryy	2ryy	2ryy	0r	.	2ryy	2ryy	2ryy	2ryy
.	.	.	16b\	.	.	.	.	.	.	.	.	.	.	.
8D\L	6	.	16dd\	.	.	.	.	.	.	.	.	.	.	.
.	.	.	16b\JJ	.	.	.	.	.	.	.	.	.	.	.
!LO:TX:t=P:problem:mixed beam	!	!	!	!	!	!	!	!	!	!	!	!	!	!
8E\	4	.	16b/LL	.	.	.	.	.	.	.	.	.	.	.
.	.	.	16an/	.	.	.	.	.	.	.	.	.	.	.
8EE/J	3	.	16a/	.	.	.	.	.	.	.	.	.	.	.
.	.	.	16g#/JJ	.	.	.	.	.	.	.	.	.	.	.
=6	=6	=6	=6	=6	=6	=6	=6	=6	=6	=6	=6	=6	=6	=6
8AA/L	.	.	8e/L	.	2ryy	2ryy	2ryy	2ryy	.	.	2ryy	2ryy	2ryy	2ryy
8AA/J	.	.	8d/J	.	.	.	.	.	.	.	.	.	.	.
!LO:LB:g=original	!	!	!	!	!	!	!	!	!	!	!	!	!	!
8r	.	.	16e/LL	.	.	.	.	.	.	.	.	.	.	.
.	.	.	16c#/	.	.	.	.	.	.	.	.	.	.	.
8A\	6	.	16f#/	.	.	.	.	.	.	.	.	.	.	.
.	5	.	16e/JJ	.	.	.	.	.	.	.	.	.	.	.
=7	=7	=7	=7	=7	=7	=7	=7	=7	=7	=7	=7	=7	=7	=7
8B\L	.	.	16e/LL	.	2ryy	2ryy	2ryy	2ryy	.	.	2ryy	2ryy	2ryy	2ryy
.	.	.	16d/J	.	.	.	.	.	.	.	.	.	.	.
8B\J	.	.	8d/J	.	.	.	.	.	.	.	.	.	.	.
8r	.	.	16d/LL	.	.	.	.	.	.	.	.	.	.	.
.	.	.	16B/	.	.	.	.	.	.	.	.	.	.	.
8G#\	6	.	16e/	.	.	.	.	.	.	.	.	.	.	.
.	5	.	16d/JJ	.	.	.	.	.	.	.	.	.	.	.
=8	=8	=8	=8	=8	=8	=8	=8	=8	=8	=8	=8	=8	=8	=8
8A\L	.	.	16d/LL	.	2ryy	2ryy	2ryy	2ryy	.	.	2ryy	2ryy	2ryy	2ryy
.	.	.	16c#/J	.	.	.	.	.	.	.	.	.	.	.
8A\J	.	.	8c#/J	.	.	.	.	.	.	.	.	.	.	.
8r	.	.	16a/LL	.	.	.	.	.	.	.	.	.	.	.
.	.	.	16e/	.	.	.	.	.	.	.	.	.	.	.
8AA/	.	.	16d/	.	.	.	.	.	.	.	.	.	.	.
.	.	.	16c#/JJ	.	.	.	.	.	.	.	.	.	.	.
=9	=9	=9	=9	=9	=9	=9	=9	=9	=9	=9	=9	=9	=9	=9
8D\L	6_	.	8d/L	.	2ryy	2ryy	2ryy	2ryy	0r	.	2ryy	2ryy	2ryy	2ryy
8D\	.	.	8f#/	.	.	.	.	.	.	.	.	.	.	.
8D\	.	.	8f#/	.	.	.	.	.	.	.	.	.	.	.
8D#X\J	5	.	8f#/J	.	.	.	.	.	.	.	.	.	.	.
=10	=10	=10	=10	=10	=10	=10	=10	=10	=10	=10	=10	=10	=10	=10
8E\L	4	.	8.c#/L	.	2ryy	2ryy	2ryy	2ryy	.	.	2ryy	2ryy	2ryy	2ryy
!LO:TX:t=P:problem:mixed beam	!	!	!	!	!	!	!	!	!	!	!	!	!	!
8E\	3	.	.	.	.	.	.	.	.	.	.	.	.	.
.	.	.	32B/LL	.	.	.	.	.	.	.	.	.	.	.
.	.	.	32c#/JJJ	.	.	.	.	.	.	.	.	.	.	.
8EE/J	.	.	8B/	.	.	.	.	.	.	.	.	.	.	.
8r	.	.	8r	.	.	.	.	.	.	.	.	.	.	.
!	!	!	!LO:LB:g=original	!	!	!	!	!	!	!	!	!	!	!
=11	=11	=11	=11	=11	=11	=11	=11	=11	=11	=11	=11	=11	=11	=11
!	!	!	!	!LO:DY:a:t=p&colon;	!	!	!	!	!	!	!	!	!	!
1r	.	.	8r	p	2ryy	2ryy	2ryy	2ryy	.	.	2ryy	2ryy	2ryy	2ryy
.	.	.	8a/L	.	.	.	.	.	.	.	.	.	.	.
.	.	.	8a/	.	.	.	.	.	.	.	.	.	.	.
.	.	.	8a/J	.	.	.	.	.	.	.	.	.	.	.
=12	=12	=12	=12	=12	=12	=12	=12	=12	=12	=12	=12	=12	=12	=12
.	.	.	8r	.	2ryy	2ryy	2ryy	2ryy	.	.	2ryy	2ryy	2ryy	2ryy
.	.	.	8d/L	.	.	.	.	.	.	.	.	.	.	.
.	.	.	8d/	.	.	.	.	.	.	.	.	.	.	.
.	.	.	8d/J	.	.	.	.	.	.	.	.	.	.	.
=13	=13	=13	=13	=13	=13	=13	=13	=13	=13	=13	=13	=13	=13	=13
2r	.	.	8r	.	2ryy	2ryy	2ryy	2ryy	0r	.	2ryy	2ryy	2ryy	2ryy
.	.	.	8e/L	.	.	.	.	.	.	.	.	.	.	.
.	.	.	8e/	.	.	.	.	.	.	.	.	.	.	.
.	.	.	8e/J	.	.	.	.	.	.	.	.	.	.	.
=14	=14	=14	=14	=14	=14	=14	=14	=14	=14	=14	=14	=14	=14	=14
4r	.	.	8a/L	.	2ryy	2ryy	2ryy	2ryy	.	.	2ryy	2ryy	2ryy	2ryy
.	.	.	8a/J	.	.	.	.	.	.	.	.	.	.	.
*	*	*	*tuplet	*	*	*	*	*	*	*	*	*	*	*
!	!	!	!LO:TUP:a:problem:klamra łukowa	!LO:DY:a:t=fr	!	!	!	!	!	!	!	!	!	!
8r	.	.	24ee\LL	f	.	.	.	.	.	.	.	.	.	.
.	.	.	24ee\	.	.	.	.	.	.	.	.	.	.	.
.	.	.	24ee\JJ	.	.	.	.	.	.	.	.	.	.	.
!	!	!	!LO:TUP:a:problem:klamra łukowa	!	!	!	!	!	!	!	!	!	!	!
8c#\	6	.	24ee\LL	.	.	.	.	.	.	.	.	.	.	.
.	.	.	24ee\	.	.	.	.	.	.	.	.	.	.	.
.	.	.	24ee\JJ	.	.	.	.	.	.	.	.	.	.	.
=15	=15	=15	=15	=15	=15	=15	=15	=15	=15	=15	=15	=15	=15	=15
!	!	!	!LO:TUP:a:problem:klamra łukowa	!	!	!	!	!	!	!	!	!	!	!
8B\L	6 3	.	24dd\LL	.	2ryy	2ryy	2ryy	2ryy	.	.	2ryy	2ryy	2ryy	2ryy
.	.	.	24gg#\	.	.	.	.	.	.	.	.	.	.	.
.	.	.	24aa\JJ	.	.	.	.	.	.	.	.	.	.	.
!	!	!	!LO:TUP:a:problem:klamra łukowa	!	!	!	!	!	!	!	!	!	!	!
8G#\	.	.	24bb\LL	.	.	.	.	.	.	.	.	.	.	.
.	.	.	24gg#\	.	.	.	.	.	.	.	.	.	.	.
.	.	.	24dd\JJ	.	.	.	.	.	.	.	.	.	.	.
!	!	!	!LO:TUP:a:problem:klamra łukowa	!	!	!	!	!	!	!	!	!	!	!
8A\	.	.	24cc#\LL	.	.	.	.	.	.	.	.	.	.	.
.	.	.	24ee\	.	.	.	.	.	.	.	.	.	.	.
.	.	.	24ee\JJ	.	.	.	.	.	.	.	.	.	.	.
!	!	!	!LO:TUP:a:problem:klamra łukowa	!	!	!	!	!	!	!	!	!	!	!
8c#\J	6	.	24ee\LL	.	.	.	.	.	.	.	.	.	.	.
.	.	.	24ee\	.	.	.	.	.	.	.	.	.	.	.
.	.	.	24ee\JJ	.	.	.	.	.	.	.	.	.	.	.
!LO:LB:g=original	!	!	!	!	!	!	!	!	!	!	!	!	!	!
=16	=16	=16	=16	=16	=16	=16	=16	=16	=16	=16	=16	=16	=16	=16
!	!	!	!LO:TUP:a:problem:klamra łukowa	!	!	!	!	!	!	!	!	!	!	!
8B\L	6 3	.	24dd\LL	.	2ryy	2ryy	2ryy	2ryy	.	.	2ryy	2ryy	2ryy	2ryy
.	.	.	24gg#\	.	.	.	.	.	.	.	.	.	.	.
.	.	.	24aa\JJ	.	.	.	.	.	.	.	.	.	.	.
!	!	!	!LO:TUP:a:problem:klamra łukowa	!	!	!	!	!	!	!	!	!	!	!
8G#\	.	.	24bb\LL	.	.	.	.	.	.	.	.	.	.	.
.	.	.	24gg#\	.	.	.	.	.	.	.	.	.	.	.
.	.	.	24dd\JJ	.	.	.	.	.	.	.	.	.	.	.
!	!	!	!LO:LB:g=original	!	!	!	!	!	!	!	!	!	!	!
*	*	*	*Xtuplet	*	*	*	*	*	*	*	*	*	*	*
8A\	.	.	24cc#\LL	.	.	.	.	.	.	.	.	.	.	.
.	.	.	24ee\	.	.	.	.	.	.	.	.	.	.	.
.	.	.	24ee\JJ	.	.	.	.	.	.	.	.	.	.	.
8c#\J	6	.	24ee\LL	.	.	.	.	.	.	.	.	.	.	.
.	.	.	24ee\	.	.	.	.	.	.	.	.	.	.	.
.	.	.	24ee\JJ	.	.	.	.	.	.	.	.	.	.	.
=17	=17	=17	=17	=17	=17	=17	=17	=17	=17	=17	=17	=17	=17	=17
8d\L	6_	.	8dd\L	.	2ryy	2ryy	2ryy	2ryy	2r	.	2ryy	2ryy	2ryy	2ryy
8d\	.	.	24dd\L	.	.	.	.	.	.	.	.	.	.	.
.	.	.	24cc#\	.	.	.	.	.	.	.	.	.	.	.
.	.	.	24b\JJ	.	.	.	.	.	.	.	.	.	.	.
8e\	4	.	8a/L	.	.	.	.	.	.	.	.	.	.	.
8E\J	3	.	8g#/J	.	.	.	.	.	.	.	.	.	.	.
=18	=18	=18	=18	=18	=18	=18	=18	=18	=18	=18	=18	=18	=18	=18
!	!	!	!	!	!	!	!	!	!LO:TX:a:i:t=Solo&colon;	!	!	!	!	!
8A\L	.	.	8a/L	.	2ryy	2ryy	2ryy	2ryy	4r	.	2ryy	2ryy	2ryy	2ryy
!LO:TX:t=P:problem:mixed beam	!	!	!	!	!	!	!	!	!	!	!	!	!	!
8AA\	.	.	8e/	.	.	.	.	.	.	.	.	.	.	.
8A/J	.	.	8e/J	.	.	.	.	.	8r	.	.	.	.	.
8r	.	.	8r	.	.	.	.	.	16a\LL	Ju-	.	.	.	.
.	.	.	.	.	.	.	.	.	16cc#\JJ	.	.	.	.	.
=19	=19	=19	=19	=19	=19	=19	=19	=19	=19	=19	=19	=19	=19	=19
!	!	!LO:DY:a:rj:t=pio&colon;	!	!LO:DY:a:rj:t=p&colon;	!	!	!	!	!	!	!	!	!	!
8A\L	.	p	8cc#\L	p	2ryy	2ryy	2ryy	2ryy	8ee\	-ra-	2ryy	2ryy	2ryy	2ryy
8A\	.	.	8cc#\	.	.	.	.	.	8ee\	-vit	.	.	.	.
8A\	.	.	8cc#\	.	.	.	.	.	16r	.	.	.	.	.
.	.	.	.	.	.	.	.	.	16ee\LL	Ju-	.	.	.	.
8A\J	.	.	8dd\J	.	.	.	.	.	16aa\	.	.	.	.	.
.	.	.	.	.	.	.	.	.	16ff#\JJ	.	.	.	.	.
=20	=20	=20	=20	=20	=20	=20	=20	=20	=20	=20	=20	=20	=20	=20
*	*	*	*	*	*	*	*	*	*Xtuplet	*	*	*	*	*
8A\L	6 4	.	24dd\LL	.	2ryy	2ryy	2ryy	2ryy	24ff#\LL	-ra-	2ryy	2ryy	2ryy	2ryy
.	5 3	.	24cc#\	.	.	.	.	.	24ee\	.	.	.	.	.
.	.	.	24dd\J	.	.	.	.	.	24ff#\JJ	.	.	.	.	.
!LO:TX:t=P:problem:mixed beam	!	!	!	!	!	!	!	!	!	!	!	!	!	!
8AA/	.	.	8cc#\J	.	.	.	.	.	8ee\	-vit	.	.	.	.
8A\J	.	.	16r	.	.	.	.	.	16r	.	.	.	.	.
.	.	.	16cc#\LL	.	.	.	.	.	16ee\LL	Ju-	.	.	.	.
8r	.	.	16b\	.	.	.	.	.	16dd\	.	.	.	.	.
.	.	.	16a\JJ	.	.	.	.	.	16cc#\JJ	.	.	.	.	.
!	!	!	!	!	!	!	!	!	!LO:LB:g=original	!	!	!	!	!
=21	=21	=21	=21	=21	=21	=21	=21	=21	=21	=21	=21	=21	=21	=21
8r	.	.	16a#X\LL	.	2ryy	2ryy	2ryy	2ryy	16cc#\LL	-ra-	2ryy	2ryy	2ryy	2ryy
.	.	.	16b\	.	.	.	.	.	16dd\	.	.	.	.	.
8D\L	6	.	16dd\	.	.	.	.	.	16ff#\	.	.	.	.	.
.	.	.	16b\JJ	.	.	.	.	.	16dd\JJ	.	.	.	.	.
!LO:TX:t=P:problem:mixed beam	!	!	!	!	!	!	!	!	!	!	!	!	!	!
8E\	4	.	16b/LL	.	.	.	.	.	16dd\LL	.	.	.	.	.
.	.	.	16an/	.	.	.	.	.	16cc#\JJ	.	.	.	.	.
8EE/J	3	.	16a/	.	.	.	.	.	16cc#\LL	-vit	.	.	.	.
.	.	.	16g#/JJ	.	.	.	.	.	16b\JJ	.	.	.	.	.
!	!	!	!LO:LB:g=original	!	!	!	!	!	!	!	!	!	!	!
=22	=22	=22	=22	=22	=22	=22	=22	=22	=22	=22	=22	=22	=22	=22
8AA/L	.	.	16a\LL	.	2ryy	2ryy	2ryy	2ryy	16cc#\	Do-	2ryy	2ryy	2ryy	2ryy
.	.	.	16b\J	.	.	.	.	.	16dd\	-mi-	.	.	.	.
16C#/L	.	.	8cc#\J	.	.	.	.	.	8ee\	-nus	.	.	.	.
16E/JJ	.	.	.	.	.	.	.	.	.	.	.	.	.	.
8A\	.	.	16r	.	.	.	.	.	16r	.	.	.	.	.
.	.	.	16cc#\LL	.	.	.	.	.	16ee\LL	&	.	.	.	.
8r	.	.	16b\	.	.	.	.	.	16dd\JJ	.	.	.	.	.
.	.	.	16a\JJ	.	.	.	.	.	16cc#\	non	.	.	.	.
!LO:LB:g=original	!	!	!	!	!	!	!	!	!	!	!	!	!	!
=23	=23	=23	=23	=23	=23	=23	=23	=23	=23	=23	=23	=23	=23	=23
8r	.	.	16a#X\LL	.	2ryy	2ryy	2ryy	2ryy	16b\LL	pae-	2ryy	2ryy	2ryy	2ryy
.	.	.	16b\	.	.	.	.	.	16dd\JJ	.	.	.	.	.
8D\L	6	.	16dd\	.	.	.	.	.	16ff#\LL	-ni-	.	.	.	.
.	.	.	16b\JJ	.	.	.	.	.	16dd\JJ	.	.	.	.	.
!LO:TX:t=P:problem:mixed beam	!	!	!	!	!	!	!	!	!	!	!	!	!	!
8E\	4	.	16b/LL	.	.	.	.	.	16dd\LL	-te-	.	.	.	.
.	.	.	16an/	.	.	.	.	.	16cc#\JJ	.	.	.	.	.
8EE/J	3	.	16a/	.	.	.	.	.	16cc#\LL	-bit	.	.	.	.
.	.	.	16g#/JJ	.	.	.	.	.	16b\JJ	.	.	.	.	.
=24	=24	=24	=24	=24	=24	=24	=24	=24	=24	=24	=24	=24	=24	=24
8AA/L	.	.	8a/L	.	2ryy	2ryy	2ryy	2ryy	8cc#\	e-	2ryy	2ryy	2ryy	2ryy
16C#/L	.	.	8e/	.	.	.	.	.	8cc#\	-um	.	.	.	.
16E/JJ	.	.	.	.	.	.	.	.	.	.	.	.	.	.
16A\LL	.	.	8e/J	.	.	.	.	.	4r	.	.	.	.	.
16E\	.	.	.	.	.	.	.	.	.	.	.	.	.	.
16C#\	.	.	8r	.	.	.	.	.	.	.	.	.	.	.
16E\JJ	.	.	.	.	.	.	.	.	.	.	.	.	.	.
=25	=25	=25	=25	=25	=25	=25	=25	=25	=25	=25	=25	=25	=25	=25
8AA/L	.	.	8e/L	.	2ryy	2ryy	2ryy	2ryy	8.cc#\L	tu	2ryy	2ryy	2ryy	2ryy
!LO:TX:t=P:problem:mixed beam	!	!	!	!	!	!	!	!	!	!	!	!	!	!
8A\	.	.	8e/	.	.	.	.	.	.	.	.	.	.	.
.	.	.	.	.	.	.	.	.	16ee\Jk	.	.	.	.	.
!	!	!	!	!	!	!	!	!	!LO:LB:g=original	!	!	!	!	!
8G#\	6_	.	8e/	.	.	.	.	.	16ee\LL	es	.	.	.	.
.	.	.	.	.	.	.	.	.	16dd\JJ	.	.	.	.	.
8G#\J	.	.	8e/J	.	.	.	.	.	16cc#\LL	Sa-	.	.	.	.
.	X	.	.	.	.	.	.	.	16b\JJ	.	.	.	.	.
=26	=26	=26	=26	=26	=26	=26	=26	=26	=26	=26	=26	=26	=26	=26
8F#\L	.	.	8c#/L	.	2ryy	2ryy	2ryy	2ryy	16b\LL	-cer-	2ryy	2ryy	2ryy	2ryy
.	.	.	.	.	.	.	.	.	16a\JJ	.	.	.	.	.
16E\L	.	.	8f#/	.	.	.	.	.	4a\	-dos	.	.	.	.
16D\JJ	.	.	.	.	.	.	.	.	.	.	.	.	.	.
8C#/L	6_	.	8e/	.	.	.	.	.	.	.	.	.	.	.
*	*	*	*	*	*	*	*	*	*	*ij	*	*	*	*
8C#/J	X	.	8e/J	.	.	.	.	.	8gn\	Sa-	.	.	.	.
!	!	!	!LO:PB:g=original	!	!	!	!	!	!	!	!	!	!	!
=27	=27	=27	=27	=27	=27	=27	=27	=27	=27	=27	=27	=27	=27	=27
8D\L	6	.	8d/L	.	2ryy	2ryy	2ryy	2ryy	8f#/	-cer-	2ryy	2ryy	2ryy	2ryy
8D\	.	.	8b/	.	.	.	.	.	16b\LL	-dos	.	.	.	.
*	*	*	*	*	*	*	*	*	*	*Xij	*	*	*	*
.	.	.	.	.	.	.	.	.	16dd\JJ	.	.	.	.	.
!LO:TX:t=P:problem:mixed beam	!	!	!	!	!	!	!	!	!	!	!	!	!	!
8E\	4	.	8a/	.	.	.	.	.	16dd\LL	in	.	.	.	.
.	.	.	.	.	.	.	.	.	16cc#\JJ	.	.	.	.	.
8EE/J	3	.	8g#/J	.	.	.	.	.	16cc#\LL	ae-	.	.	.	.
.	.	.	.	.	.	.	.	.	16b\JJ	.	.	.	.	.
=28	=28	=28	=28	=28	=28	=28	=28	=28	=28	=28	=28	=28	=28	=28
8AA/L	.	.	8a/L	.	2ryy	2ryy	2ryy	2ryy	8cc#\	-ter-	2ryy	2ryy	2ryy	2ryy
16C#/L	.	.	8e/	.	.	.	.	.	8cc#\	-num	.	.	.	.
16E/JJ	.	.	.	.	.	.	.	.	.	.	.	.	.	.
!LO:TX:t=P:problem:mixed beam	!	!	!	!	!	!	!	!	!	!	!	!	!	!
8A\L	.	.	8e/J	.	.	.	.	.	8r	.	.	.	.	.
8AA/J	.	.	8r	.	.	.	.	.	8ee\	Se-	.	.	.	.
=29	=29	=29	=29	=29	=29	=29	=29	=29	=29	=29	=29	=29	=29	=29
*	*	*	*^	*	*	*	*	*	*	*	*	*	*	*
8r	.	.	8r	8ryy	.	2ryy	2ryy	2ryy	2ryy	8.ff#\L	-cun-	2ryy	2ryy	2ryy	2ryy
8D\L	.	.	8a/L	8f#\L	.	.	.	.	.	.	.	.	.	.	.
.	.	.	.	.	.	.	.	.	.	16dd\Jk	.	.	.	.	.
8D\	.	.	8a/	8f#\	.	.	.	.	.	8a\	-dum	.	.	.	.
8D\J	.	.	8a/J	8f#\J	.	.	.	.	.	8r	.	.	.	.	.
!LO:LB:g=original	!	!	!	!	!	!	!	!	!	!	!	!	!	!	!
=30	=30	=30	=30	=30	=30	=30	=30	=30	=30	=30	=30	=30	=30	=30	=30
8r	.	.	8r	8ryy	.	2ryy	2ryy	2ryy	2ryy	16a\LL	Se-	2ryy	2ryy	2ryy	2ryy
.	.	.	.	.	.	.	.	.	.	32b\L	.	.	.	.	.
.	.	.	.	.	.	.	.	.	.	32cc#\JJJ	.	.	.	.	.
!	!	!	!	!	!	!	!	!	!	!LO:LB:g=original	!	!	!	!	!
8D\L	.	.	8a/L	8f#\L	.	.	.	.	.	32dd\LLL	.	.	.	.	.
.	.	.	.	.	.	.	.	.	.	32ee\	.	.	.	.	.
.	.	.	.	.	.	.	.	.	.	32ff#\	.	.	.	.	.
.	.	.	.	.	.	.	.	.	.	32gg#\JJJ	.	.	.	.	.
8D\	.	.	8a/	8f#\	.	.	.	.	.	16aa\LL	.	.	.	.	.
.	.	.	.	.	.	.	.	.	.	16ff#\	.	.	.	.	.
8D\J	.	.	8a/J	8f#\J	.	.	.	.	.	16dd\	.	.	.	.	.
.	.	.	.	.	.	.	.	.	.	16ff#\JJ	.	.	.	.	.
=31	=31	=31	=31	=31	=31	=31	=31	=31	=31	=31	=31	=31	=31	=31	=31
8r	.	.	8r	8ryy	.	2ryy	2ryy	2ryy	2ryy	8.ee\L	-cun-	2ryy	2ryy	2ryy	2ryy
8C#/L	6_	.	8a/L	8e\L	.	.	.	.	.	.	.	.	.	.	.
.	.	.	.	.	.	.	.	.	.	16cc#\Jk	.	.	.	.	.
8C#/	.	.	8a/	8e\	.	.	.	.	.	8a\	-dum	.	.	.	.
8C#/J	.	.	8a/J	8e\J	.	.	.	.	.	8r	.	.	.	.	.
=32	=32	=32	=32	=32	=32	=32	=32	=32	=32	=32	=32	=32	=32	=32	=32
8r	.	.	8r	8ryy	.	2ryy	2ryy	2ryy	2ryy	16a\LL	o-	2ryy	2ryy	2ryy	2ryy
.	.	.	.	.	.	.	.	.	.	32b\L	.	.	.	.	.
.	.	.	.	.	.	.	.	.	.	32cc#\JJJ	.	.	.	.	.
8C#/L	.	.	8a/L	8e\L	.	.	.	.	.	32dd\LLL	.	.	.	.	.
.	X	.	.	.	.	.	.	.	.	32ee\	.	.	.	.	.
.	.	.	.	.	.	.	.	.	.	32ff#\	.	.	.	.	.
.	.	.	.	.	.	.	.	.	.	32gg#\JJJ	.	.	.	.	.
8C#/	.	.	8a/	8e\	.	.	.	.	.	16aa\LL	.	.	.	.	.
.	.	.	.	.	.	.	.	.	.	16ee\	.	.	.	.	.
8C#/J	.	.	8a/J	8e\J	.	.	.	.	.	16cc#\	.	.	.	.	.
.	.	.	.	.	.	.	.	.	.	16ee\JJ	.	.	.	.	.
*	*	*	*v	*v	*	*	*	*	*	*	*	*	*	*	*
=33	=33	=33	=33	=33	=33	=33	=33	=33	=33	=33	=33	=33	=33	=33
8r	.	.	8r	.	2ryy	2ryy	2ryy	2ryy	8.ee\	-rdi-	2ryy	2ryy	2ryy	2ryy
8G#\L	6_ 5_	.	8bL 8e/	.	.	.	.	.	.	.	.	.	.	.
.	.	.	.	.	.	.	.	.	16dd\	.	.	.	.	.
8G#\	.	.	8b 8e/	.	.	.	.	.	8b\	-nem	.	.	.	.
8G#\J	.	.	8bJ 8e/	.	.	.	.	.	8r	.	.	.	.	.
!	!	!	!LO:LB:g=original	!	!	!	!	!	!	!	!	!	!	!
=34	=34	=34	=34	=34	=34	=34	=34	=34	=34	=34	=34	=34	=34	=34
8r	.	.	8r	.	2ryy	2ryy	2ryy	2ryy	16b\LL	or-	2ryy	2ryy	2ryy	2ryy
.	.	.	.	.	.	.	.	.	32cc#\L	.	.	.	.	.
.	.	.	.	.	.	.	.	.	32dd\JJJ	.	.	.	.	.
8G#\L	.	.	8bL 8e/	.	.	.	.	.	32ee\LLL	.	.	.	.	.
.	X X	.	.	.	.	.	.	.	32ff#\	.	.	.	.	.
.	.	.	.	.	.	.	.	.	32gg#\	.	.	.	.	.
.	.	.	.	.	.	.	.	.	32aa\JJJ	.	.	.	.	.
!	!	!	!	!	!	!	!	!	!LO:LB:g=original	!	!	!	!	!
8G#\	.	.	8b 8e/	.	.	.	.	.	16bb\LL	.	.	.	.	.
.	.	.	.	.	.	.	.	.	16gg#\	.	.	.	.	.
8G#\J	.	.	8bJ 8e/	.	.	.	.	.	16ee\	.	.	.	.	.
.	.	.	.	.	.	.	.	.	16dd\JJ	.	.	.	.	.
=35	=35	=35	=35	=35	=35	=35	=35	=35	=35	=35	=35	=35	=35	=35
8r	.	.	8r	.	2ryy	2ryy	2ryy	2ryy	4cc#\	.	2ryy	2ryy	2ryy	2ryy
8A\L	.	.	8e/L	.	.	.	.	.	.	.	.	.	.	.
8A\	.	.	8e/	.	.	.	.	.	16cc#\LL	.	.	.	.	.
.	.	.	.	.	.	.	.	.	32b\L	.	.	.	.	.
.	.	.	.	.	.	.	.	.	32cc#\JJJ	.	.	.	.	.
8A\J	.	.	8e/J	.	.	.	.	.	32dd\LLL	.	.	.	.	.
.	.	.	.	.	.	.	.	.	32cc#\	.	.	.	.	.
.	.	.	.	.	.	.	.	.	32b\	.	.	.	.	.
.	.	.	.	.	.	.	.	.	32cc#\JJJ	.	.	.	.	.
=36	=36	=36	=36	=36	=36	=36	=36	=36	=36	=36	=36	=36	=36	=36
8r	.	.	8r	.	2ryy	2ryy	2ryy	2ryy	4aa\	.	2ryy	2ryy	2ryy	2ryy
8AA/L	.	.	8e/L	.	.	.	.	.	.	.	.	.	.	.
8AA/	.	.	8e/	.	.	.	.	.	32aa\LLL	.	.	.	.	.
.	.	.	.	.	.	.	.	.	32gg#\	.	.	.	.	.
.	.	.	.	.	.	.	.	.	32ff#\	.	.	.	.	.
.	.	.	.	.	.	.	.	.	32ee\JJJ	.	.	.	.	.
8AA/J	.	.	8e/J	.	.	.	.	.	32ff#\LLL	.	.	.	.	.
.	.	.	.	.	.	.	.	.	32ee\	.	.	.	.	.
.	.	.	.	.	.	.	.	.	32dd\	.	.	.	.	.
.	.	.	.	.	.	.	.	.	32cc#\JJJ	.	.	.	.	.
=37	=37	=37	=37	=37	=37	=37	=37	=37	=37	=37	=37	=37	=37	=37
8r	.	.	8r	.	2ryy	2ryy	2ryy	2ryy	16cc#\LL	.	2ryy	2ryy	2ryy	2ryy
.	.	.	.	.	.	.	.	.	16b\JJ	.	.	.	.	.
8D\L	6_	.	8f#/L	.	.	.	.	.	16dd\LL	-di-	.	.	.	.
.	.	.	.	.	.	.	.	.	16cc#\JJ	.	.	.	.	.
8D\	.	.	8f#/	.	.	.	.	.	16cc#\LL	-nem	.	.	.	.
.	.	.	.	.	.	.	.	.	16b\JJ	.	.	.	.	.
8D#X\J	5	.	8f#/J	.	.	.	.	.	16b\LL	mel-	.	.	.	.
.	.	.	.	.	.	.	.	.	16a\JJ	.	.	.	.	.
!LO:LB:g=original	!	!	!	!	!	!	!	!	!	!	!	!	!	!
=38	=38	=38	=38	=38	=38	=38	=38	=38	=38	=38	=38	=38	=38	=38
8E\L	4	.	8.c#/L	.	2ryy	2ryy	2ryy	2ryy	8.a\	-chi-	2ryy	2ryy	2ryy	2ryy
!LO:TX:t=P:problem:mixed beam	!	!	!	!	!	!	!	!	!	!	!	!	!	!
8E\	.	.	.	.	.	.	.	.	.	.	.	.	.	.
.	.	.	32B/LL	.	.	.	.	.	16a\	-ſe-	.	.	.	.
.	.	.	32c#/JJJ	.	.	.	.	.	.	.	.	.	.	.
8EE/J	3	.	8B/	.	.	.	.	.	8g#\	-dech	.	.	.	.
8r	.	.	8r	.	.	.	.	.	8r	.	.	.	.	.
!	!	!	!	!	!	!	!	!	!LO:LB:g=original	!	!	!	!	!
=39	=39	=39	=39	=39	=39	=39	=39	=39	=39	=39	=39	=39	=39	=39
8r	.	.	8r	.	2ryy	2ryy	2ryy	2ryy	24g#\LL	or-	2ryy	2ryy	2ryy	2ryy
.	.	.	.	.	.	.	.	.	24a\	.	.	.	.	.
.	.	.	.	.	.	.	.	.	24g#\JJ	.	.	.	.	.
8E\L	.	.	8g#/L	.	.	.	.	.	24b\LL	.	.	.	.	.
.	.	.	.	.	.	.	.	.	24cc#\	.	.	.	.	.
.	.	.	.	.	.	.	.	.	24b\JJ	.	.	.	.	.
8E\	.	.	8g#/	.	.	.	.	.	8ee\	.	.	.	.	.
8E\J	.	.	8g#/J	.	.	.	.	.	16r	.	.	.	.	.
.	.	.	.	.	.	.	.	.	16g#\	.	.	.	.	.
=40	=40	=40	=40	=40	=40	=40	=40	=40	=40	=40	=40	=40	=40	=40
8r	.	.	8r	.	2ryy	2ryy	2ryy	2ryy	24f#/LL	.	2ryy	2ryy	2ryy	2ryy
.	.	.	.	.	.	.	.	.	24e/	.	.	.	.	.
.	.	.	.	.	.	.	.	.	24f#/JJ	.	.	.	.	.
8D#X\L	6 5	.	8f#/L	.	.	.	.	.	24a\LL	.	.	.	.	.
.	.	.	.	.	.	.	.	.	24g#\	.	.	.	.	.
.	.	.	.	.	.	.	.	.	24a\JJ	.	.	.	.	.
8D#\	.	.	8f#/	.	.	.	.	.	24ff#\LL	.	.	.	.	.
.	.	.	.	.	.	.	.	.	24ee\	.	.	.	.	.
.	.	.	.	.	.	.	.	.	24dd#X\JJ	.	.	.	.	.
8D#\J	.	.	8f#/J	.	.	.	.	.	24cc#\LL	.	.	.	.	.
.	.	.	.	.	.	.	.	.	24b\	.	.	.	.	.
.	.	.	.	.	.	.	.	.	24a\JJ	.	.	.	.	.
!	!	!	!LO:LB:g=original	!	!	!	!	!	!	!	!	!	!	!
=41	=41	=41	=41	=41	=41	=41	=41	=41	=41	=41	=41	=41	=41	=41
8r	.	.	8r	.	2ryy	2ryy	2ryy	2ryy	24g#\LL	.	2ryy	2ryy	2ryy	2ryy
.	.	.	.	.	.	.	.	.	24a\	.	.	.	.	.
.	.	.	.	.	.	.	.	.	24g#\JJ	.	.	.	.	.
8E\L	.	.	8g#/L	.	.	.	.	.	24b\LL	.	.	.	.	.
.	.	.	.	.	.	.	.	.	24cc#\	.	.	.	.	.
.	.	.	.	.	.	.	.	.	24b\JJ	.	.	.	.	.
8E\	.	.	8g#/	.	.	.	.	.	8ee\	.	.	.	.	.
8E\J	.	.	8g#/J	.	.	.	.	.	16r	.	.	.	.	.
.	.	.	.	.	.	.	.	.	16g#\	.	.	.	.	.
=42	=42	=42	=42	=42	=42	=42	=42	=42	=42	=42	=42	=42	=42	=42
8r	.	.	8r	.	2ryy	2ryy	2ryy	2ryy	24f#/LL	.	2ryy	2ryy	2ryy	2ryy
.	.	.	.	.	.	.	.	.	24e/	.	.	.	.	.
.	.	.	.	.	.	.	.	.	24f#/JJ	.	.	.	.	.
8D#X\L	6 5	.	8f#/L	.	.	.	.	.	24a\LL	.	.	.	.	.
.	.	.	.	.	.	.	.	.	24g#\	.	.	.	.	.
.	.	.	.	.	.	.	.	.	24a\JJ	.	.	.	.	.
!	!	!	!	!	!	!	!	!	!LO:LB:g=original	!	!	!	!	!
8D#\	.	.	8f#/	.	.	.	.	.	24ff#\LL	.	.	.	.	.
.	.	.	.	.	.	.	.	.	24ee\	.	.	.	.	.
.	.	.	.	.	.	.	.	.	24dd#X\JJ	.	.	.	.	.
8D#\J	.	.	8f#/J	.	.	.	.	.	24cc#\LL	.	.	.	.	.
.	.	.	.	.	.	.	.	.	24b\	.	.	.	.	.
.	.	.	.	.	.	.	.	.	24a\JJ	.	.	.	.	.
=43	=43	=43	=43	=43	=43	=43	=43	=43	=43	=43	=43	=43	=43	=43
8E\	.	.	8g#/	.	2ryy	2ryy	2ryy	2ryy	24g#/LL	.	2ryy	2ryy	2ryy	2ryy
.	.	.	.	.	.	.	.	.	24e/	.	.	.	.	.
.	.	.	.	.	.	.	.	.	24g#/JJ	.	.	.	.	.
8r	.	.	8r	.	.	.	.	.	24b\LL	.	.	.	.	.
.	.	.	.	.	.	.	.	.	24cc#\	.	.	.	.	.
.	.	.	.	.	.	.	.	.	24b\JJ	.	.	.	.	.
8D#X\	6 5	.	8f#/	.	.	.	.	.	24a\LL	.	.	.	.	.
.	.	.	.	.	.	.	.	.	24g#\	.	.	.	.	.
.	.	.	.	.	.	.	.	.	24a\JJ	.	.	.	.	.
8r	.	.	8r	.	.	.	.	.	24f#/LL	.	.	.	.	.
.	.	.	.	.	.	.	.	.	24g#/	.	.	.	.	.
.	.	.	.	.	.	.	.	.	24a/JJ	.	.	.	.	.
=44	=44	=44	=44	=44	=44	=44	=44	=44	=44	=44	=44	=44	=44	=44
8E\	.	.	8g#/	.	2ryy	2ryy	2ryy	2ryy	24g#/LL	.	2ryy	2ryy	2ryy	2ryy
.	.	.	.	.	.	.	.	.	24e/	.	.	.	.	.
.	.	.	.	.	.	.	.	.	24g#/JJ	.	.	.	.	.
8r	.	.	8r	.	.	.	.	.	24b\LL	.	.	.	.	.
.	.	.	.	.	.	.	.	.	24cc#\	.	.	.	.	.
.	.	.	.	.	.	.	.	.	24b\JJ	.	.	.	.	.
8D#X\	6 5	.	8f#/	.	.	.	.	.	24a\LL	.	.	.	.	.
.	.	.	.	.	.	.	.	.	24g#\	.	.	.	.	.
.	.	.	.	.	.	.	.	.	24a\JJ	.	.	.	.	.
8r	.	.	8r	.	.	.	.	.	24f#/LL	-di-	.	.	.	.
.	.	.	.	.	.	.	.	.	24g#/	.	.	.	.	.
.	.	.	.	.	.	.	.	.	24a/JJ	.	.	.	.	.
=45	=45	=45	=45	=45	=45	=45	=45	=45	=45	=45	=45	=45	=45	=45
4E\	.	.	4g#/	.	2ryy	2ryy	2ryy	2ryy	24g#/LL	-nem	2ryy	2ryy	2ryy	2ryy
.	.	.	.	.	.	.	.	.	24e/	.	.	.	.	.
.	.	.	.	.	.	.	.	.	24g#/JJ	.	.	.	.	.
.	.	.	.	.	.	.	.	.	24b\LL	mel-	.	.	.	.
.	.	.	.	.	.	.	.	.	24g#\	.	.	.	.	.
.	.	.	.	.	.	.	.	.	24b\JJ	.	.	.	.	.
4r	.	.	4r	.	.	.	.	.	24ee\LL	.	.	.	.	.
.	.	.	.	.	.	.	.	.	24b\	.	.	.	.	.
.	.	.	.	.	.	.	.	.	24ee\JJ	.	.	.	.	.
!	!	!	!	!	!	!	!	!	!LO:LB:g=original	!	!	!	!	!
.	.	.	.	.	.	.	.	.	24gg#\LL	.	.	.	.	.
.	.	.	.	.	.	.	.	.	24ff#\	.	.	.	.	.
.	.	.	.	.	.	.	.	.	24ee\JJ	.	.	.	.	.
!LO:LB:g=original	!	!	!	!	!	!	!	!	!	!	!	!	!	!
=46	=46	=46	=46	=46	=46	=46	=46	=46	=46	=46	=46	=46	=46	=46
8B\L	4	.	16g#/LL	.	2ryy	2ryy	2ryy	2ryy	4b\	-chi-	2ryy	2ryy	2ryy	2ryy
.	.	.	16g#/	.	.	.	.	.	.	.	.	.	.	.
!LO:TX:t=P:problem:mixed beam	!	!	!	!	!	!	!	!	!	!	!	!	!	!
8B\	.	.	16g#/	.	.	.	.	.	.	.	.	.	.	.
.	.	.	16g#/JJ	.	.	.	.	.	.	.	.	.	.	.
*	*	*	*tremolo	*	*	*	*	*	*	*	*	*	*	*
8BB/	#	.	16a/LL	.	.	.	.	.	4ff#\	-ſe-	.	.	.	.
.	.	.	16a/	.	.	.	.	.	.	.	.	.	.	.
8BB/J	.	.	16a/	.	.	.	.	.	.	.	.	.	.	.
.	.	.	16a/JJ	.	.	.	.	.	.	.	.	.	.	.
*	*	*	*Xtremolo	*	*	*	*	*	*	*	*	*	*	*
=47	=47	=47	=47	=47	=47	=47	=47	=47	=47	=47	=47	=47	=47	=47
!	!	!LO:DY:a:rj:t=f&colon;	!	!LO:DY:a:t=f&colon;	!	!	!	!	!	!	!	!	!	!
8E\L	.	f	8g#/L	f	2ryy	2ryy	2ryy	2ryy	4ee\	-dech	2ryy	2ryy	2ryy	2ryy
8E\	.	.	8g#/J	.	.	.	.	.	.	.	.	.	.	.
8G#\	6	.	16b/LL	.	.	.	.	.	4r	.	.	.	.	.
.	.	.	16g#/	.	.	.	.	.	.	.	.	.	.	.
8G#\J	.	.	16f#/	.	.	.	.	.	.	.	.	.	.	.
.	.	.	16e/JJ	.	.	.	.	.	.	.	.	.	.	.
!	!	!	!LO:LB:g=original	!	!	!	!	!	!	!	!	!	!	!
=48	=48	=48	=48	=48	=48	=48	=48	=48	=48	=48	=48	=48	=48	=48
8B\L	#_	.	8d#X/L	.	2ryy	2ryy	2ryy	2ryy	0r	.	2ryy	2ryy	2ryy	2ryy
8A\	.	.	16d#/L	.	.	.	.	.	.	.	.	.	.	.
.	.	.	16f#/JJ	.	.	.	.	.	.	.	.	.	.	.
8G#\	6	.	16e/LL	.	.	.	.	.	.	.	.	.	.	.
.	.	.	16d#/	.	.	.	.	.	.	.	.	.	.	.
8E\J	.	.	16e/	.	.	.	.	.	.	.	.	.	.	.
.	.	.	16g#/JJ	.	.	.	.	.	.	.	.	.	.	.
=49	=49	=49	=49	=49	=49	=49	=49	=49	=49	=49	=49	=49	=49	=49
8D#X/L	6_	.	16g#/LL	.	2ryy	2ryy	2ryy	2ryy	.	.	2ryy	2ryy	2ryy	2ryy
.	.	.	16f#/	.	.	.	.	.	.	.	.	.	.	.
8D#/	.	.	16b/	.	.	.	.	.	.	.	.	.	.	.
.	.	.	16a/JJ	.	.	.	.	.	.	.	.	.	.	.
8BB/	.	.	16g#/LL	.	.	.	.	.	.	.	.	.	.	.
.	X	.	16f#/	.	.	.	.	.	.	.	.	.	.	.
8BB/J	.	.	16e/	.	.	.	.	.	.	.	.	.	.	.
.	.	.	16d#X/JJ	.	.	.	.	.	.	.	.	.	.	.
=50	=50	=50	=50	=50	=50	=50	=50	=50	=50	=50	=50	=50	=50	=50
8E\L	.	.	8.e/L	.	2ryy	2ryy	2ryy	2ryy	.	.	2ryy	2ryy	2ryy	2ryy
8E\	.	.	.	.	.	.	.	.	.	.	.	.	.	.
.	.	.	16g#/Jk	.	.	.	.	.	.	.	.	.	.	.
*	*	*	*tuplet	*	*	*	*	*	*	*	*	*	*	*
!	!	!	!LO:TUP:a:problem:klamra łukowa	!	!	!	!	!	!	!	!	!	!	!
!	!	!	!LO:TX:t=P:problem:mixed beam	!	!	!	!	!	!	!	!	!	!	!
8E\	.	.	24B/LL	.	.	.	.	.	.	.	.	.	.	.
.	.	.	24b\	.	.	.	.	.	.	.	.	.	.	.
.	.	.	24b\JJ	.	.	.	.	.	.	.	.	.	.	.
!	!	!	!LO:TUP:a:problem:klamra łukowa	!	!	!	!	!	!	!	!	!	!	!
8G#\J	6	.	24b\LL	.	.	.	.	.	.	.	.	.	.	.
.	.	.	24b\	.	.	.	.	.	.	.	.	.	.	.
.	.	.	24b\JJ	.	.	.	.	.	.	.	.	.	.	.
=51	=51	=51	=51	=51	=51	=51	=51	=51	=51	=51	=51	=51	=51	=51
*	*	*	*Xtuplet	*	*	*	*	*	*	*	*	*	*	*
8F#\L	6\ 3	.	24a\LL	.	2ryy	2ryy	2ryy	2ryy	.	.	2ryy	2ryy	2ryy	2ryy
.	.	.	24dd#X\	.	.	.	.	.	.	.	.	.	.	.
.	.	.	24ee\JJ	.	.	.	.	.	.	.	.	.	.	.
8D#X\	.	.	24ff#\LL	.	.	.	.	.	.	.	.	.	.	.
.	.	.	24dd#\	.	.	.	.	.	.	.	.	.	.	.
.	.	.	24a\JJ	.	.	.	.	.	.	.	.	.	.	.
8E\	.	.	24g#/LL	.	.	.	.	.	.	.	.	.	.	.
.	.	.	24b/	.	.	.	.	.	.	.	.	.	.	.
.	.	.	24b/JJ	.	.	.	.	.	.	.	.	.	.	.
8G#\J	6	.	24b/LL	.	.	.	.	.	.	.	.	.	.	.
.	.	.	24b/	.	.	.	.	.	.	.	.	.	.	.
.	.	.	24b/JJ	.	.	.	.	.	.	.	.	.	.	.
!	!	!	!LO:LB:g=original	!	!	!	!	!	!	!	!	!	!	!
=52	=52	=52	=52	=52	=52	=52	=52	=52	=52	=52	=52	=52	=52	=52
8F#\L	6\ 3	.	24a\LL	.	2ryy	2ryy	2ryy	2ryy	1r	.	2ryy	2ryy	2ryy	2ryy
.	.	.	24dd#X\	.	.	.	.	.	.	.	.	.	.	.
.	.	.	24ee\JJ	.	.	.	.	.	.	.	.	.	.	.
8D#X\	.	.	24ff#\LL	.	.	.	.	.	.	.	.	.	.	.
.	.	.	24dd#\	.	.	.	.	.	.	.	.	.	.	.
.	.	.	24a\JJ	.	.	.	.	.	.	.	.	.	.	.
8E\	.	.	24g#/LL	.	.	.	.	.	.	.	.	.	.	.
.	.	.	24b/	.	.	.	.	.	.	.	.	.	.	.
.	.	.	24b/JJ	.	.	.	.	.	.	.	.	.	.	.
8G#\J	6	.	24b/LL	.	.	.	.	.	.	.	.	.	.	.
.	.	.	24b/	.	.	.	.	.	.	.	.	.	.	.
.	.	.	24b/JJ	.	.	.	.	.	.	.	.	.	.	.
=53	=53	=53	=53	=53	=53	=53	=53	=53	=53	=53	=53	=53	=53	=53
8A\L	6_	.	8a/L	.	2ryy	2ryy	2ryy	2ryy	.	.	2ryy	2ryy	2ryy	2ryy
8A\	.	.	24a/L	.	.	.	.	.	.	.	.	.	.	.
.	.	.	24g#/	.	.	.	.	.	.	.	.	.	.	.
.	.	.	24f#/JJ	.	.	.	.	.	.	.	.	.	.	.
!LO:TX:t=P:problem:mixed beam	!	!	!	!	!	!	!	!	!	!	!	!	!	!
8B\	4	.	8e/L	.	.	.	.	.	.	.	.	.	.	.
8BB/J	#	.	8d#X/J	.	.	.	.	.	.	.	.	.	.	.
!LO:LB:g=original	!	!	!	!	!	!	!	!	!	!	!	!	!	!
=54	=54	=54	=54	=54	=54	=54	=54	=54	=54	=54	=54	=54	=54	=54
8E\L	.	.	8e/L	.	2ryy	2ryy	2ryy	2ryy	4r	.	2ryy	2ryy	2ryy	2ryy
!LO:TX:t=P:problem:mixed beam	!	!	!	!	!	!	!	!	!	!	!	!	!	!
8EE/	.	.	8B/	.	.	.	.	.	.	.	.	.	.	.
8E\J	.	.	8B/J	.	.	.	.	.	8r	.	.	.	.	.
8r	.	.	8r	.	.	.	.	.	16e/LL	Do-	.	.	.	.
.	.	.	.	.	.	.	.	.	16g#/JJ	.	.	.	.	.
=55	=55	=55	=55	=55	=55	=55	=55	=55	=55	=55	=55	=55	=55	=55
!	!	!LO:DY:a:rj:t=p&colon;	!	!LO:DY:a:t=p&colon;	!	!	!	!	!	!	!	!	!	!
8E\L	.	p	8g#/L	p	2ryy	2ryy	2ryy	2ryy	16b\	.	2ryy	2ryy	2ryy	2ryy
.	.	.	.	.	.	.	.	.	16b\	-mi-	.	.	.	.
8E\	.	.	8g#/	.	.	.	.	.	8b\	-nus	.	.	.	.
8E\	.	.	8g#/	.	.	.	.	.	16r	.	.	.	.	.
.	.	.	.	.	.	.	.	.	16b\LL	a	.	.	.	.
8E\J	.	.	8a/J	.	.	.	.	.	16ee\	.	.	.	.	.
.	.	.	.	.	.	.	.	.	16cc#\JJ	.	.	.	.	.
=56	=56	=56	=56	=56	=56	=56	=56	=56	=56	=56	=56	=56	=56	=56
8E\L	6 4	.	24a/LL	.	2ryy	2ryy	2ryy	2ryy	24cc#\LL	Dex-	2ryy	2ryy	2ryy	2ryy
.	5 3	.	24g#/	.	.	.	.	.	24b\	.	.	.	.	.
.	.	.	24a/J	.	.	.	.	.	24cc#\JJ	.	.	.	.	.
8E\	.	.	8g#/J	.	.	.	.	.	8b\	-tris	.	.	.	.
8E\J	.	.	16r	.	.	.	.	.	16r	.	.	.	.	.
.	.	.	16g#/LL	.	.	.	.	.	16b\LL	Do-	.	.	.	.
8r	.	.	16f#/	.	.	.	.	.	16a\JJ	.	.	.	.	.
.	.	.	16e/JJ	.	.	.	.	.	16g#\	-mi-	.	.	.	.
!	!	!	!LO:LB:g=original	!	!	!	!	!	!LO:LB:g=original	!	!	!	!	!
=57	=57	=57	=57	=57	=57	=57	=57	=57	=57	=57	=57	=57	=57	=57
8r	.	.	16e#X/LL	.	2ryy	2ryy	2ryy	2ryy	16g#\LL	-nus	2ryy	2ryy	2ryy	2ryy
.	.	.	16f#/	.	.	.	.	.	16a\JJ	.	.	.	.	.
8A\L	6	.	16a/	.	.	.	.	.	16cc#\LL	a	.	.	.	.
.	.	.	16f#/JJ	.	.	.	.	.	16a\JJ	.	.	.	.	.
!LO:TX:t=P:problem:mixed beam	!	!	!	!	!	!	!	!	!	!	!	!	!	!
8B\	4	.	16f#/LL	.	.	.	.	.	16a\LL	dex-	.	.	.	.
.	.	.	16en/	.	.	.	.	.	16g#\JJ	.	.	.	.	.
8BB/J	#	.	16e/	.	.	.	.	.	16g#\LL	-tris	.	.	.	.
.	.	.	16d#X/JJ	.	.	.	.	.	16f#\JJ	.	.	.	.	.
=58	=58	=58	=58	=58	=58	=58	=58	=58	=58	=58	=58	=58	=58	=58
8E\L	.	.	16e/LL	.	2ryy	2ryy	2ryy	2ryy	16g#\LL	tu-	2ryy	2ryy	2ryy	2ryy
.	.	.	16f#/J	.	.	.	.	.	16a\JJ	.	.	.	.	.
16G#\L	.	.	8g#/J	.	.	.	.	.	8b\	-is	.	.	.	.
16B\JJ	.	.	.	.	.	.	.	.	.	.	.	.	.	.
8e\	.	.	16r	.	.	.	.	.	16r	.	.	.	.	.
.	.	.	16g#/LL	.	.	.	.	.	16b\LL	Do-	.	.	.	.
8r	.	.	16f#/	.	.	.	.	.	16a\JJ	.	.	.	.	.
.	.	.	16e/JJ	.	.	.	.	.	16g#\	-mi-	.	.	.	.
=59	=59	=59	=59	=59	=59	=59	=59	=59	=59	=59	=59	=59	=59	=59
8r	.	.	16e#X/LL	.	2ryy	2ryy	2ryy	2ryy	16g#\LL	-nus	2ryy	2ryy	2ryy	2ryy
.	.	.	16f#/	.	.	.	.	.	16a\JJ	.	.	.	.	.
8A\L	6	.	16a/	.	.	.	.	.	16cc#\LL	a	.	.	.	.
.	.	.	16f#/JJ	.	.	.	.	.	16a\JJ	.	.	.	.	.
!LO:TX:t=P:problem:mixed beam	!	!	!	!	!	!	!	!	!	!	!	!	!	!
8B\	4	.	16f#/LL	.	.	.	.	.	16a\LL	dex-	.	.	.	.
.	.	.	16en/	.	.	.	.	.	16g#\JJ	.	.	.	.	.
8BB/J	#	.	16e/	.	.	.	.	.	16g#\LL	-tris	.	.	.	.
.	.	.	16d#X/JJ	.	.	.	.	.	16f#\JJ	.	.	.	.	.
=60	=60	=60	=60	=60	=60	=60	=60	=60	=60	=60	=60	=60	=60	=60
8E\L	.	.	8e/L	.	2ryy	2ryy	2ryy	2ryy	8g#\	tu-	2ryy	2ryy	2ryy	2ryy
8E\	.	.	16e/L	.	.	.	.	.	8g#\	-is	.	.	.	.
.	.	.	16f#/JJ	.	.	.	.	.	.	.	.	.	.	.
8E\J	.	.	16g#/LL	.	.	.	.	.	8r	.	.	.	.	.
.	.	.	16e/	.	.	.	.	.	.	.	.	.	.	.
8r	.	.	16g#/	.	.	.	.	.	8b\	Con-	.	.	.	.
.	.	.	16e/JJ	.	.	.	.	.	.	.	.	.	.	.
!LO:LB:g=original	!	!	!	!	!	!	!	!	!LO:LB:g=original	!	!	!	!	!
=61	=61	=61	=61	=61	=61	=61	=61	=61	=61	=61	=61	=61	=61	=61
8E\	6_ 4_	.	16a/LL	.	2ryy	2ryy	2ryy	2ryy	8cc#\	-fre-	2ryy	2ryy	2ryy	2ryy
.	.	.	16e/	.	.	.	.	.	.	.	.	.	.	.
8r	.	.	16a/	.	.	.	.	.	4cc#\	-git	.	.	.	.
.	.	.	16e/JJ	.	.	.	.	.	.	.	.	.	.	.
!	!	!	!LO:LB:g=original	!	!	!	!	!	!	!	!	!	!	!
8E\	.	.	16a/LL	.	.	.	.	.	.	.	.	.	.	.
.	.	.	16e/	.	.	.	.	.	.	.	.	.	.	.
8r	.	.	16a/	.	.	.	.	.	16ee\LL	in	.	.	.	.
.	.	.	16e/JJ	.	.	.	.	.	16cc#\JJ	.	.	.	.	.
=62	=62	=62	=62	=62	=62	=62	=62	=62	=62	=62	=62	=62	=62	=62
8E\	5_ 3_	.	16g#/LL	.	2ryy	2ryy	2ryy	2ryy	16cc#\LL	Di-	2ryy	2ryy	2ryy	2ryy
.	.	.	16e/	.	.	.	.	.	16b\JJ	.	.	.	.	.
8r	.	.	16g#/	.	.	.	.	.	8b\	-e	.	.	.	.
.	.	.	16e/JJ	.	.	.	.	.	.	.	.	.	.	.
8E\	.	.	16g#/LL	.	.	.	.	.	8r	.	.	.	.	.
.	.	.	16e/	.	.	.	.	.	.	.	.	.	.	.
8r	.	.	16g#/	.	.	.	.	.	8b\	Con-	.	.	.	.
.	.	.	16e/JJ	.	.	.	.	.	.	.	.	.	.	.
=63	=63	=63	=63	=63	=63	=63	=63	=63	=63	=63	=63	=63	=63	=63
8E\	6_ 4_	.	16a/LL	.	2ryy	2ryy	2ryy	2ryy	8cc#\	-fre-	2ryy	2ryy	2ryy	2ryy
.	.	.	16e/	.	.	.	.	.	.	.	.	.	.	.
8r	.	.	16a/	.	.	.	.	.	4cc#\	-git	.	.	.	.
.	.	.	16e/JJ	.	.	.	.	.	.	.	.	.	.	.
8E\	.	.	16a/LL	.	.	.	.	.	.	.	.	.	.	.
.	.	.	16e/	.	.	.	.	.	.	.	.	.	.	.
8r	.	.	16a/	.	.	.	.	.	16ee\LL	in	.	.	.	.
.	.	.	16e/JJ	.	.	.	.	.	16cc#\JJ	.	.	.	.	.
=64	=64	=64	=64	=64	=64	=64	=64	=64	=64	=64	=64	=64	=64	=64
8E\	5_ 3_	.	16g#/LL	.	2ryy	2ryy	2ryy	2ryy	16cc#\LL	Di-	2ryy	2ryy	2ryy	2ryy
.	.	.	16e/	.	.	.	.	.	16b\JJ	.	.	.	.	.
8r	.	.	16g#/	.	.	.	.	.	8b\	-e	.	.	.	.
.	.	.	16e/JJ	.	.	.	.	.	.	.	.	.	.	.
8E\	.	.	16g#/LL	.	.	.	.	.	8r	.	.	.	.	.
.	.	.	16e/	.	.	.	.	.	.	.	.	.	.	.
8r	.	.	16g#/	.	.	.	.	.	8b\	in	.	.	.	.
.	X X	.	16e/JJ	.	.	.	.	.	.	.	.	.	.	.
=65	=65	=65	=65	=65	=65	=65	=65	=65	=65	=65	=65	=65	=65	=65
8A\L	.	.	8e/L	.	2ryy	2ryy	2ryy	2ryy	8.cc#\L	Di-	2ryy	2ryy	2ryy	2ryy
8A\	.	.	8a 8e/	.	.	.	.	.	.	.	.	.	.	.
.	.	.	.	.	.	.	.	.	32b\LL	.	.	.	.	.
.	.	.	.	.	.	.	.	.	32cc#\JJJ	.	.	.	.	.
8A\	#4r_ 2_	.	8b 8f#/	.	.	.	.	.	16dd#X\LL	.	.	.	.	.
.	.	.	.	.	.	.	.	.	16ee\JJ	.	.	.	.	.
8A\J	.	.	8bJ 8f#/	.	.	.	.	.	16ff#\LL	-e	.	.	.	.
.	.	.	.	.	.	.	.	.	16dd#\JJ	.	.	.	.	.
!	!	!	!	!	!	!	!	!	!LO:PB:g=original	!	!	!	!	!
=66	=66	=66	=66	=66	=66	=66	=66	=66	=66	=66	=66	=66	=66	=66
8G#\L	6_	.	8bL 8e/	.	2ryy	2ryy	2ryy	2ryy	16ee\LL	i-	2ryy	2ryy	2ryy	2ryy
.	.	.	.	.	.	.	.	.	16ff#\JJ	.	.	.	.	.
8G#\	.	.	8b 8e/	.	.	.	.	.	16gg#\LL	-rae	.	.	.	.
.	.	.	.	.	.	.	.	.	16ee\JJ	.	.	.	.	.
8G#\	.	.	8b 8e/	.	.	.	.	.	8.b\	Su-	.	.	.	.
8G#\J	.	.	8bJ 8e/	.	.	.	.	.	.	.	.	.	.	.
.	.	.	.	.	.	.	.	.	32cc#\LLL	.	.	.	.	.
.	.	.	.	.	.	.	.	.	32ddn\JJJ	.	.	.	.	.
!	!	!	!LO:LB:g=original	!	!	!	!	!	!	!	!	!	!	!
=67	=67	=67	=67	=67	=67	=67	=67	=67	=67	=67	=67	=67	=67	=67
8A\L	6	.	8a/L	.	2ryy	2ryy	2ryy	2ryy	16cc#\LL	.	2ryy	2ryy	2ryy	2ryy
.	.	.	.	.	.	.	.	.	16ff#\JJ	.	.	.	.	.
8A\	.	.	8a/	.	.	.	.	.	16aa\LL	-ae	.	.	.	.
.	.	.	.	.	.	.	.	.	16ff#\JJ	.	.	.	.	.
!LO:TX:t=P:problem:mixed beam	!	!	!	!	!	!	!	!	!	!	!	!	!	!
8B\	4	.	8g#/	.	.	.	.	.	8ee\L	re-	.	.	.	.
8BB\J	#	.	8f#/J	.	.	.	.	.	8dd#X\J	.	.	.	.	.
=68	=68	=68	=68	=68	=68	=68	=68	=68	=68	=68	=68	=68	=68	=68
4E\	.	.	4g#/	.	2ryy	2ryy	2ryy	2ryy	4ee\	-ges	2ryy	2ryy	2ryy	2ryy
4r	.	.	4r	.	.	.	.	.	4r	.	.	.	.	.
!LO:LB:g=original	!	!	!	!	!	!	!	!	!	!	!	!	!	!
=69	=69	=69	=69	=69	=69	=69	=69	=69	=69	=69	=69	=69	=69	=69
8A#X\L	5_	.	8cc#\L	.	2ryy	2ryy	2ryy	2ryy	8.ee\	Con-	2ryy	2ryy	2ryy	2ryy
8A#\	.	.	8cc#\	.	.	.	.	.	.	.	.	.	.	.
.	.	.	.	.	.	.	.	.	32dd\LLL	-fre-	.	.	.	.
.	.	.	.	.	.	.	.	.	32ee\JJJ	.	.	.	.	.
8A#\	6	.	8cc#\	.	.	.	.	.	16ff#\LL	-git	.	.	.	.
.	.	.	.	.	.	.	.	.	16gg#\JJ	.	.	.	.	.
8A#\J	5	.	8cc#\J	.	.	.	.	.	16ff#\LL	in	.	.	.	.
.	.	.	.	.	.	.	.	.	16ee\JJ	.	.	.	.	.
=70	=70	=70	=70	=70	=70	=70	=70	=70	=70	=70	=70	=70	=70	=70
!LO:TX:t=P:problem:mixed beam	!	!	!	!	!	!	!	!	!	!	!	!	!	!
8B\L	n_	.	8f#/L	.	2ryy	2ryy	2ryy	2ryy	16ee\LL	di-	2ryy	2ryy	2ryy	2ryy
.	.	.	.	.	.	.	.	.	16ddn\JJ	.	.	.	.	.
8BB/J	X	.	8f#/J	.	.	.	.	.	8dd\	-e	.	.	.	.
4r	.	.	4r	.	.	.	.	.	4r	.	.	.	.	.
!	!	!	!	!	!	!	!	!	!LO:LB:g=original	!	!	!	!	!
=71	=71	=71	=71	=71	=71	=71	=71	=71	=71	=71	=71	=71	=71	=71
8G#\L	5_	.	8b\L	.	2ryy	2ryy	2ryy	2ryy	8.dd\	Con-	2ryy	2ryy	2ryy	2ryy
8G#\	.	.	8b\	.	.	.	.	.	.	.	.	.	.	.
.	.	.	.	.	.	.	.	.	32cc#\LLL	-fre-	.	.	.	.
.	.	.	.	.	.	.	.	.	32dd\JJJ	.	.	.	.	.
8G#\	6	.	8b\	.	.	.	.	.	16ee\LL	-git	.	.	.	.
.	.	.	.	.	.	.	.	.	16ff#\JJ	.	.	.	.	.
8G#\J	5	.	8b\J	.	.	.	.	.	16ee\LL	in	.	.	.	.
.	.	.	.	.	.	.	.	.	16dd\JJ	.	.	.	.	.
=72	=72	=72	=72	=72	=72	=72	=72	=72	=72	=72	=72	=72	=72	=72
!LO:TX:t=P:problem:mixed beam	!	!	!	!	!	!	!	!	!	!	!	!	!	!
8An\L	3_	.	8e/L	.	2ryy	2ryy	2ryy	2ryy	16dd\LL	Di-	2ryy	2ryy	2ryy	2ryy
.	.	.	.	.	.	.	.	.	16cc#\JJ	.	.	.	.	.
8AA/J	X	.	8e/J	.	.	.	.	.	8cc#\	-e	.	.	.	.
4r	.	.	4r	.	.	.	.	.	4r	.	.	.	.	.
=73	=73	=73	=73	=73	=73	=73	=73	=73	=73	=73	=73	=73	=73	=73
8A\L	.	.	8e/L	.	2ryy	2ryy	2ryy	2ryy	8.cc#\	Con-	2ryy	2ryy	2ryy	2ryy
8A\	.	.	8e/	.	.	.	.	.	.	.	.	.	.	.
.	.	.	.	.	.	.	.	.	32b\LLL	-fre-	.	.	.	.
.	.	.	.	.	.	.	.	.	32cc#\JJJ	.	.	.	.	.
8G#\	6	.	8e/	.	.	.	.	.	16ee\LL	-git	.	.	.	.
.	.	.	.	.	.	.	.	.	16dd\JJ	.	.	.	.	.
8G#\J	.	.	8e/J	.	.	.	.	.	16cc#\LL	in	.	.	.	.
.	.	.	.	.	.	.	.	.	16b\JJ	.	.	.	.	.
=74	=74	=74	=74	=74	=74	=74	=74	=74	=74	=74	=74	=74	=74	=74
8F#\L	.	.	8c#/L	.	2ryy	2ryy	2ryy	2ryy	16b\LL	Di-	2ryy	2ryy	2ryy	2ryy
.	.	.	.	.	.	.	.	.	16a\	.	.	.	.	.
8F#\	.	.	8c#/	.	.	.	.	.	16g#\	.	.	.	.	.
.	.	.	.	.	.	.	.	.	16a\JJ	.	.	.	.	.
8C#\	6	.	8e/	.	.	.	.	.	8.a\L	-e	.	.	.	.
8C#\J	.	.	8e/J	.	.	.	.	.	.	.	.	.	.	.
.	.	.	.	.	.	.	.	.	16a#X\Jk	.	.	.	.	.
!	!	!	!LO:LB:g=original	!	!	!	!	!	!	!	!	!	!	!
=75	=75	=75	=75	=75	=75	=75	=75	=75	=75	=75	=75	=75	=75	=75
8D\L	6_	.	8f#/L	.	2ryy	2ryy	2ryy	2ryy	8b\	i-	2ryy	2ryy	2ryy	2ryy
8D\	.	.	8f#/	.	.	.	.	.	16dd\LL	-rae	.	.	.	.
.	.	.	.	.	.	.	.	.	16cc#\JJ	.	.	.	.	.
8D\	.	.	8f#/	.	.	.	.	.	16cc#\LL	Su-	.	.	.	.
.	.	.	.	.	.	.	.	.	16b\JJ	.	.	.	.	.
8D#X\J	5	.	8f#/J	.	.	.	.	.	16b\LL	-ae	.	.	.	.
.	.	.	.	.	.	.	.	.	16a\JJ	.	.	.	.	.
!	!	!	!	!	!	!	!	!	!LO:LB:g=original	!	!	!	!	!
=76	=76	=76	=76	=76	=76	=76	=76	=76	=76	=76	=76	=76	=76	=76
8E\L	4	.	8.c#/L	.	2ryy	2ryy	2ryy	2ryy	8.a\L	re-	2ryy	2ryy	2ryy	2ryy
!LO:TX:t=P:problem:mixed beam	!	!	!	!	!	!	!	!	!	!	!	!	!	!
8E\	3	.	.	.	.	.	.	.	.	.	.	.	.	.
.	.	.	32B/LL	.	.	.	.	.	32g#\LL	.	.	.	.	.
.	.	.	32c#/JJJ	.	.	.	.	.	32a\JJJ	.	.	.	.	.
8EE/J	.	.	8B/	.	.	.	.	.	8g#\	-ges	.	.	.	.
8r	.	.	8r	.	.	.	.	.	8r	.	.	.	.	.
!LO:PB:g=original	!	!	!	!	!	!	!	!	!	!	!	!	!	!
=77	=77	=77	=77	=77	=77	=77	=77	=77	=77	=77	=77	=77	=77	=77
8r	.	.	8r	.	2ryy	2ryy	2ryy	2ryy	24cc#\LL	in	2ryy	2ryy	2ryy	2ryy
.	.	.	.	.	.	.	.	.	24dd\	.	.	.	.	.
.	.	.	.	.	.	.	.	.	24cc#\JJ	.	.	.	.	.
8A\L	.	.	8e/L	.	.	.	.	.	24ee\LL	di-	.	.	.	.
.	.	.	.	.	.	.	.	.	24ff#\	.	.	.	.	.
.	.	.	.	.	.	.	.	.	24ee\JJ	.	.	.	.	.
8A\	.	.	8e/	.	.	.	.	.	8aa\	-e	.	.	.	.
8A\J	.	.	8e/J	.	.	.	.	.	16r	.	.	.	.	.
.	.	.	.	.	.	.	.	.	16cc#\	i-	.	.	.	.
=78	=78	=78	=78	=78	=78	=78	=78	=78	=78	=78	=78	=78	=78	=78
8r	.	.	8r	.	2ryy	2ryy	2ryy	2ryy	24b\LL	.	2ryy	2ryy	2ryy	2ryy
.	.	.	.	.	.	.	.	.	24a\	.	.	.	.	.
.	.	.	.	.	.	.	.	.	24b\JJ	.	.	.	.	.
8G#\L	6_ 5_	.	8e/L	.	.	.	.	.	24dd\LL	-rae	.	.	.	.
.	.	.	.	.	.	.	.	.	24cc#\	.	.	.	.	.
.	.	.	.	.	.	.	.	.	24dd\JJ	.	.	.	.	.
8G#\	.	.	8e/	.	.	.	.	.	24bb\LL	Su-	.	.	.	.
.	.	.	.	.	.	.	.	.	24aa\	.	.	.	.	.
.	.	.	.	.	.	.	.	.	24gg#\JJ	.	.	.	.	.
8G#\J	X X	.	8e/J	.	.	.	.	.	24ff#\LL	-ae	.	.	.	.
.	.	.	.	.	.	.	.	.	24ee\	.	.	.	.	.
.	.	.	.	.	.	.	.	.	24dd\JJ	.	.	.	.	.
=79	=79	=79	=79	=79	=79	=79	=79	=79	=79	=79	=79	=79	=79	=79
8r	.	.	8r	.	2ryy	2ryy	2ryy	2ryy	24cc#\LL	re-	2ryy	2ryy	2ryy	2ryy
.	.	.	.	.	.	.	.	.	24dd\	.	.	.	.	.
.	.	.	.	.	.	.	.	.	24cc#\JJ	.	.	.	.	.
8A\L	.	.	8e/L	.	.	.	.	.	24ee\LL	.	.	.	.	.
.	.	.	.	.	.	.	.	.	24ff#\	.	.	.	.	.
.	.	.	.	.	.	.	.	.	24ee\JJ	.	.	.	.	.
8A\	.	.	8e/	.	.	.	.	.	8aa\	.	.	.	.	.
8A\J	.	.	8e/J	.	.	.	.	.	16r	.	.	.	.	.
.	.	.	.	.	.	.	.	.	16cc#\	.	.	.	.	.
!	!	!	!	!	!	!	!	!	!LO:LB:g=original	!	!	!	!	!
=80	=80	=80	=80	=80	=80	=80	=80	=80	=80	=80	=80	=80	=80	=80
8r	.	.	8r	.	2ryy	2ryy	2ryy	2ryy	24b\LL	.	2ryy	2ryy	2ryy	2ryy
.	.	.	.	.	.	.	.	.	24a\	.	.	.	.	.
.	.	.	.	.	.	.	.	.	24b\JJ	.	.	.	.	.
8G#\L	6_ 5_	.	8e/L	.	.	.	.	.	24dd\LL	.	.	.	.	.
.	.	.	.	.	.	.	.	.	24cc#\	.	.	.	.	.
.	.	.	.	.	.	.	.	.	24dd\JJ	.	.	.	.	.
8G#\	.	.	8e/	.	.	.	.	.	24bb\LL	.	.	.	.	.
.	.	.	.	.	.	.	.	.	24aa\	.	.	.	.	.
.	.	.	.	.	.	.	.	.	24gg#\JJ	.	.	.	.	.
8G#\J	X X	.	8e/J	.	.	.	.	.	24ff#\LL	.	.	.	.	.
.	.	.	.	.	.	.	.	.	24ee\	.	.	.	.	.
.	.	.	.	.	.	.	.	.	24dd\JJ	.	.	.	.	.
=81	=81	=81	=81	=81	=81	=81	=81	=81	=81	=81	=81	=81	=81	=81
8A\	.	.	8e/	.	2ryy	2ryy	2ryy	2ryy	24cc#\LL	.	2ryy	2ryy	2ryy	2ryy
.	.	.	.	.	.	.	.	.	24a\	.	.	.	.	.
.	.	.	.	.	.	.	.	.	24cc#\JJ	.	.	.	.	.
8r	.	.	8r	.	.	.	.	.	24ee\LL	.	.	.	.	.
.	.	.	.	.	.	.	.	.	24ff#\	.	.	.	.	.
.	.	.	.	.	.	.	.	.	24ee\JJ	.	.	.	.	.
8G#\	6 5	.	8e/	.	.	.	.	.	24dd\LL	.	.	.	.	.
.	.	.	.	.	.	.	.	.	24cc#\	.	.	.	.	.
.	.	.	.	.	.	.	.	.	24dd\JJ	.	.	.	.	.
8r	.	.	8r	.	.	.	.	.	24b\LL	.	.	.	.	.
.	.	.	.	.	.	.	.	.	24cc#\	.	.	.	.	.
.	.	.	.	.	.	.	.	.	24dd\JJ	.	.	.	.	.
!	!	!	!LO:LB:g=original	!	!	!	!	!	!	!	!	!	!	!
=82	=82	=82	=82	=82	=82	=82	=82	=82	=82	=82	=82	=82	=82	=82
8A\	.	.	8e/	.	2ryy	2ryy	2ryy	2ryy	24cc#\LL	.	2ryy	2ryy	2ryy	2ryy
.	.	.	.	.	.	.	.	.	24a\	.	.	.	.	.
.	.	.	.	.	.	.	.	.	24cc#\JJ	.	.	.	.	.
8r	.	.	8r	.	.	.	.	.	24ee\LL	.	.	.	.	.
.	.	.	.	.	.	.	.	.	24ff#\	.	.	.	.	.
.	.	.	.	.	.	.	.	.	24ee\JJ	.	.	.	.	.
8G#\	6 5	.	8e/	.	.	.	.	.	24dd\LL	.	.	.	.	.
.	.	.	.	.	.	.	.	.	24cc#\	.	.	.	.	.
.	.	.	.	.	.	.	.	.	24dd\JJ	.	.	.	.	.
8r	.	.	8r	.	.	.	.	.	24b\LL	.	.	.	.	.
.	.	.	.	.	.	.	.	.	24cc#\	.	.	.	.	.
.	.	.	.	.	.	.	.	.	24dd\JJ	.	.	.	.	.
=83	=83	=83	=83	=83	=83	=83	=83	=83	=83	=83	=83	=83	=83	=83
4A\	.	.	4e/	.	2ryy	2ryy	2ryy	2ryy	24cc#\LL	.	2ryy	2ryy	2ryy	2ryy
.	.	.	.	.	.	.	.	.	24a\	.	.	.	.	.
.	.	.	.	.	.	.	.	.	24cc#\JJ	.	.	.	.	.
!	!	!	!	!	!	!	!	!	!LO:LB:g=original	!	!	!	!	!
.	.	.	.	.	.	.	.	.	24ee\LL	.	.	.	.	.
.	.	.	.	.	.	.	.	.	24cc#\	.	.	.	.	.
.	.	.	.	.	.	.	.	.	24ee\JJ	.	.	.	.	.
4r	.	.	4r	.	.	.	.	.	24aa\LL	.	.	.	.	.
.	.	.	.	.	.	.	.	.	24ee\	.	.	.	.	.
.	.	.	.	.	.	.	.	.	24dd\JJ	.	.	.	.	.
.	.	.	.	.	.	.	.	.	24cc#\LL	.	.	.	.	.
.	.	.	.	.	.	.	.	.	24b\	.	.	.	.	.
.	.	.	.	.	.	.	.	.	24a\JJ	.	.	.	.	.
!LO:LB:g=original	!	!	!	!	!	!	!	!	!	!	!	!	!	!
=84	=84	=84	=84	=84	=84	=84	=84	=84	=84	=84	=84	=84	=84	=84
8e\L	4	.	16a/LL	.	2ryy	2ryy	2ryy	2ryy	4e/	.	2ryy	2ryy	2ryy	2ryy
.	.	.	16a/	.	.	.	.	.	.	.	.	.	.	.
8e\	.	.	16a/	.	.	.	.	.	.	.	.	.	.	.
.	.	.	16a/JJ	.	.	.	.	.	.	.	.	.	.	.
*	*	*	*tremolo	*	*	*	*	*	*	*	*	*	*	*
8E\	3	.	16g#/LL	.	.	.	.	.	4b\	.	.	.	.	.
.	.	.	16g#/	.	.	.	.	.	.	.	.	.	.	.
8E\J	.	.	16g#/	.	.	.	.	.	.	.	.	.	.	.
.	.	.	16g#/JJ	.	.	.	.	.	.	.	.	.	.	.
*	*	*	*Xtremolo	*	*	*	*	*	*	*	*	*	*	*
=85	=85	=85	=85	=85	=85	=85	=85	=85	=85	=85	=85	=85	=85	=85
!LO:TX:t=P:problem:mixed beam	!	!LO:DY:a:rj:t=f&colon;	!	!LO:DY:a:t=f&colon;	!	!	!	!	!	!	!	!	!	!
8A\L	.	f	8e/L	f	2ryy	2ryy	2ryy	2ryy	4a\	-ges	2ryy	2ryy	2ryy	2ryy
8AA/J	.	.	32c#/LL	.	.	.	.	.	.	.	.	.	.	.
.	.	.	(32B/	.	.	.	.	.	.	.	.	.	.	.
.	.	.	32c#/	.	.	.	.	.	.	.	.	.	.	.
.	.	.	32d/JJJ)	.	.	.	.	.	.	.	.	.	.	.
8r	.	.	16e/LL	.	.	.	.	.	4r	.	.	.	.	.
.	6	.	16c#/	.	.	.	.	.	.	.	.	.	.	.
8A\	5	.	16f#/	.	.	.	.	.	.	.	.	.	.	.
.	.	.	16e/JJ	.	.	.	.	.	.	.	.	.	.	.
=86	=86	=86	=86	=86	=86	=86	=86	=86	=86	=86	=86	=86	=86	=86
8B\L	.	.	16e/LL	.	2ryy	2ryy	2ryy	2ryy	0r	.	2ryy	2ryy	2ryy	2ryy
.	.	.	16d/J	.	.	.	.	.	.	.	.	.	.	.
8B\J	.	.	8d/J	.	.	.	.	.	.	.	.	.	.	.
8r	.	.	16d/LL	.	.	.	.	.	.	.	.	.	.	.
.	6	.	16B/	.	.	.	.	.	.	.	.	.	.	.
8G#\	5	.	16e/	.	.	.	.	.	.	.	.	.	.	.
.	.	.	16d/JJ	.	.	.	.	.	.	.	.	.	.	.
=87	=87	=87	=87	=87	=87	=87	=87	=87	=87	=87	=87	=87	=87	=87
8A\L	.	.	16d/LL	.	2ryy	2ryy	2ryy	2ryy	.	.	2ryy	2ryy	2ryy	2ryy
.	.	.	16c#/J	.	.	.	.	.	.	.	.	.	.	.
8A\J	.	.	8c#/J	.	.	.	.	.	.	.	.	.	.	.
8r	.	.	16a/LL	.	.	.	.	.	.	.	.	.	.	.
.	.	.	16e/	.	.	.	.	.	.	.	.	.	.	.
8AA/	.	.	16d/	.	.	.	.	.	.	.	.	.	.	.
.	.	.	16c#/JJ	.	.	.	.	.	.	.	.	.	.	.
!	!	!	!LO:LB:g=original	!	!	!	!	!	!	!	!	!	!	!
=88	=88	=88	=88	=88	=88	=88	=88	=88	=88	=88	=88	=88	=88	=88
8D\L	6_	.	8d/L	.	2ryy	2ryy	2ryy	2ryy	.	.	2ryy	2ryy	2ryy	2ryy
8D\	.	.	8f#/	.	.	.	.	.	.	.	.	.	.	.
8D\	.	.	8f#/	.	.	.	.	.	.	.	.	.	.	.
8D#X\J	5	.	8f#/J	.	.	.	.	.	.	.	.	.	.	.
=89	=89	=89	=89	=89	=89	=89	=89	=89	=89	=89	=89	=89	=89	=89
8E\L	4_	.	8.c#/L	.	2ryy	2ryy	2ryy	2ryy	.	.	2ryy	2ryy	2ryy	2ryy
!LO:TX:t=P:problem:mixed beam	!	!	!	!	!	!	!	!	!	!	!	!	!	!
8E\	3	.	.	.	.	.	.	.	.	.	.	.	.	.
.	.	.	32B/LL	.	.	.	.	.	.	.	.	.	.	.
.	.	.	32c#/JJJ	.	.	.	.	.	.	.	.	.	.	.
8EE/J	.	.	8B/	.	.	.	.	.	.	.	.	.	.	.
8r	.	.	8r	.	.	.	.	.	.	.	.	.	.	.
=90	=90	=90	=90	=90	=90	=90	=90	=90	=90	=90	=90	=90	=90	=90
!	!	!	!	!LO:DY:a:t=p&colon;	!	!	!	!	!	!	!	!	!	!
1r	.	.	8r	p	2ryy	2ryy	2ryy	2ryy	0r	.	2ryy	2ryy	2ryy	2ryy
.	.	.	8a/L	.	.	.	.	.	.	.	.	.	.	.
.	.	.	8a/	.	.	.	.	.	.	.	.	.	.	.
.	.	.	8a/J	.	.	.	.	.	.	.	.	.	.	.
=91	=91	=91	=91	=91	=91	=91	=91	=91	=91	=91	=91	=91	=91	=91
.	.	.	8r	.	2ryy	2ryy	2ryy	2ryy	.	.	2ryy	2ryy	2ryy	2ryy
.	.	.	8d/L	.	.	.	.	.	.	.	.	.	.	.
.	.	.	8d/	.	.	.	.	.	.	.	.	.	.	.
.	.	.	8d/J	.	.	.	.	.	.	.	.	.	.	.
=92	=92	=92	=92	=92	=92	=92	=92	=92	=92	=92	=92	=92	=92	=92
2r	.	.	8r	.	2ryy	2ryy	2ryy	2ryy	.	.	2ryy	2ryy	2ryy	2ryy
.	.	.	8e/L	.	.	.	.	.	.	.	.	.	.	.
.	.	.	8e/	.	.	.	.	.	.	.	.	.	.	.
.	.	.	8e/J	.	.	.	.	.	.	.	.	.	.	.
=93	=93	=93	=93	=93	=93	=93	=93	=93	=93	=93	=93	=93	=93	=93
4r	.	.	8a/L	.	2ryy	2ryy	2ryy	2ryy	.	.	2ryy	2ryy	2ryy	2ryy
.	.	.	8a/J	.	.	.	.	.	.	.	.	.	.	.
*	*	*	*tuplet	*	*	*	*	*	*	*	*	*	*	*
!	!	!	!LO:TUP:a:problem:klamra łukowa	!LO:DY:a:t=f&colon;	!	!	!	!	!	!	!	!	!	!
8r	.	.	24ee\LL	f	.	.	.	.	.	.	.	.	.	.
.	.	.	24ee\	.	.	.	.	.	.	.	.	.	.	.
.	.	.	24ee\JJ	.	.	.	.	.	.	.	.	.	.	.
!	!	!	!LO:TUP:a:problem:klamra łukowa	!	!	!	!	!	!	!	!	!	!	!
8c#\	6	.	24ee\LL	.	.	.	.	.	.	.	.	.	.	.
.	.	.	24ee\	.	.	.	.	.	.	.	.	.	.	.
.	.	.	24ee\JJ	.	.	.	.	.	.	.	.	.	.	.
!LO:LB:g=original	!	!	!LO:LB:g=original	!	!	!	!	!	!	!	!	!	!	!
=94	=94	=94	=94	=94	=94	=94	=94	=94	=94	=94	=94	=94	=94	=94
!	!	!	!LO:TUP:a:problem:klamra łukowa	!	!	!	!	!	!	!	!	!	!	!
8B\L	6 3	.	24dd\LL	.	2ryy	2ryy	2ryy	2ryy	0r	.	2ryy	2ryy	2ryy	2ryy
.	.	.	24gg#\	.	.	.	.	.	.	.	.	.	.	.
.	.	.	24aa\JJ	.	.	.	.	.	.	.	.	.	.	.
!	!	!	!LO:TUP:a:problem:klamra łukowa	!	!	!	!	!	!	!	!	!	!	!
8G#\	.	.	24bb\LL	.	.	.	.	.	.	.	.	.	.	.
.	.	.	24gg#\	.	.	.	.	.	.	.	.	.	.	.
.	.	.	24dd\JJ	.	.	.	.	.	.	.	.	.	.	.
!	!	!	!LO:TUP:a:problem:klamra łukowa	!	!	!	!	!	!	!	!	!	!	!
8A\	.	.	24cc#\LL	.	.	.	.	.	.	.	.	.	.	.
.	.	.	24ee\	.	.	.	.	.	.	.	.	.	.	.
.	.	.	24ee\JJ	.	.	.	.	.	.	.	.	.	.	.
!	!	!	!LO:TUP:a:problem:klamra łukowa	!	!	!	!	!	!	!	!	!	!	!
8c#\J	6	.	24ee\LL	.	.	.	.	.	.	.	.	.	.	.
.	.	.	24ee\	.	.	.	.	.	.	.	.	.	.	.
.	.	.	24ee\JJ	.	.	.	.	.	.	.	.	.	.	.
=95	=95	=95	=95	=95	=95	=95	=95	=95	=95	=95	=95	=95	=95	=95
*	*	*	*Xtuplet	*	*	*	*	*	*	*	*	*	*	*
8B\L	6 3	.	24dd\LL	.	2ryy	2ryy	2ryy	2ryy	.	.	2ryy	2ryy	2ryy	2ryy
.	.	.	24gg#\	.	.	.	.	.	.	.	.	.	.	.
.	.	.	24aa\JJ	.	.	.	.	.	.	.	.	.	.	.
8G#\	.	.	24bb\LL	.	.	.	.	.	.	.	.	.	.	.
.	.	.	24gg#\	.	.	.	.	.	.	.	.	.	.	.
.	.	.	24dd\JJ	.	.	.	.	.	.	.	.	.	.	.
8A\	.	.	24cc#\LL	.	.	.	.	.	.	.	.	.	.	.
.	.	.	24ee\	.	.	.	.	.	.	.	.	.	.	.
.	.	.	24ee\JJ	.	.	.	.	.	.	.	.	.	.	.
8c#\J	6	.	24ee\LL	.	.	.	.	.	.	.	.	.	.	.
.	.	.	24ee\	.	.	.	.	.	.	.	.	.	.	.
.	.	.	24ee\JJ	.	.	.	.	.	.	.	.	.	.	.
=96	=96	=96	=96	=96	=96	=96	=96	=96	=96	=96	=96	=96	=96	=96
8d\L	6_	.	8dd\L	.	2ryy	2ryy	2ryy	2ryy	.	.	2ryy	2ryy	2ryy	2ryy
8d\	.	.	24dd\L	.	.	.	.	.	.	.	.	.	.	.
.	.	.	24cc#\	.	.	.	.	.	.	.	.	.	.	.
.	.	.	24b\JJ	.	.	.	.	.	.	.	.	.	.	.
8e\	4	.	8a/L	.	.	.	.	.	.	.	.	.	.	.
8E\J	3	.	8g#/J	.	.	.	.	.	.	.	.	.	.	.
=97	=97	=97	=97	=97	=97	=97	=97	=97	=97	=97	=97	=97	=97	=97
8A\L	.	.	8a/L	.	2ryy	2ryy	2ryy	2ryy	.	.	2ryy	2ryy	2ryy	2ryy
!LO:TX:t=P:problem:mixed beam	!	!	!	!	!	!	!	!	!	!	!	!	!	!
8AA/	.	.	16a/L	.	.	.	.	.	.	.	.	.	.	.
.	.	.	16cc#/JJ	.	.	.	.	.	.	.	.	.	.	.
8A\J	.	.	8a/	.	.	.	.	.	.	.	.	.	.	.
!	!	!	!LO:TX:b:i:t=Verte	!	!	!	!	!	!	!	!	!	!	!
8r	.	.	8r	.	.	.	.	.	.	.	.	.	.	.
==	==	==	==	==	==	==	==	==	==	==	==	==	==	==
*-	*-	*-	*-	*-	*-	*-	*-	*-	*-	*-	*-	*-	*-	*-
!!!system-decoration: [(g1)][(g2)][(g3)][(g4)]s11
!!!AIN: 1 alto 1 bass 2 cor 2 flt 1 organ 1 soprn 1 tenor 2 violn
!!!ENC: Marta Chmielewska
!!!END: 2020-07-20
!!!ENC: Marta Lawrence
!!!END: 2021-01-13
